X: 1803
T: Sultânîyegâh Aranağme (Türkaksağı)
C: ?
O: Turkey
F: http://compmusic.upf.edu/node/140
N: sultaniyegah--aranagme--turkaksagi--1--
N: makam= sultaniyegah
N: form= aranagme
N: usul= turkaksagi = 5/8
M: 5/8
L: 1/16
K: C _B ^c  
Q: 1/4=120
%%MIDI tuningsystem comma53
A4 d4 e2 | f2 g2a2 g2f2  | e2f2 g2f2 e2 | \
w:  ARANAĞME  |   |   | 
dc dfed cBA2  | 
w:   | 
A4 b2a2 g2 | f2 e2f2 g2a2  | fed2 c2d2 ed | \
w:   |   |   | 
d8z2  | =c4 d4 c2 | 
w:   |   | 
=c=B c_edc _BAG2  | F2G2 A2G2 F2 | GF GBAG FED2  | 
w:   |   |   | 
D2E2 F2E2 D2 | E2 F2G2 A2z2  | FED2 C2D2 ED | \
w:   |   |   | 
D8z2  | A4 d4 e2 | 
w:   |  ARANAĞME  | 
f2 g2a2 g2f2  | e2f2 g2f2 e2 | dc dfed cBA2  | \
w:   |   |   | 
A4 b2a2 g2 | 
w:   | 
f2 e2f2 g2a2  | fed2 c2d2 ed | d8z2  | =c4 d4 c2 | \
w:   |   |   |   | 
=c=B c_edc _BAG2  | 
w:   | 
F2G2 A2G2 F2 | GF GBAG FED2  | D2E2 F2E2 D2 | \
w:   |   |   | 
E2 F2G2 A2z2  | 
w:   | 
FED2 C2D2 ED | D8z2  | |


